assets/air.svg

<?xml version="1.0" encoding="utf-8"?>
<!-- Generator: Adobe Illustrator 21.1.0, SVG Export Plug-In . SVG Version: 6.00 Build 0)  -->
<svg version="1.1" id="Layer_1" xmlns="http://www.w3.org/2000/svg" xmlns:xlink="http://www.w3.org/1999/xlink" x="0px" y="0px"
	 viewBox="0 0 19 20" style="enable-background:new 0 0 19 20;" xml:space="preserve">
<style type="text/css">
	.st0{fill:#001833;}
</style>
<path id="path-1_1_" class="st0" d="M19,14v-2l-8-5V1.5C11,0.7,10.3,0,9.5,0S8,0.7,8,1.5V7l-8,5v2l8-2.5V17l-2,1.5V20l3.5-1l3.5,1
	v-1.5L11,17v-5.5L19,14z"/>
</svg>

<?xml version="1.0" encoding="UTF-8"?>
<svg width="19px" height="20px" viewBox="0 0 19 20" version="1.1" xmlns="http://www.w3.org/2000/svg" xmlns:xlink="http://www.w3.org/1999/xlink">
    <!-- Generator: Sketch 47.1 (45422) - http://www.bohemiancoding.com/sketch -->
    <title>Mask</title>
    <desc>Created with Sketch.</desc>
    <defs>
        <path d="M19,14 L19,12 L11,7 L11,1.5 C11,0.67 10.33,0 9.5,0 C8.67,0 8,0.67 8,1.5 L8,7 L0,12 L0,14 L8,11.5 L8,17 L6,18.5 L6,20 L9.5,19 L13,20 L13,18.5 L11,17 L11,11.5 L19,14 Z" id="path-1"></path>
    </defs>
    <g id="Icons" stroke="none" stroke-width="1" fill="none" fill-rule="evenodd">
        <g id="product-/-air" transform="translate(-2.000000, -2.000000)">
            <g id="air">
                <g id="Icon-🎨" transform="translate(2.000000, 2.000000)">
                    <mask id="mask-2" fill="white">
                        <use xlink:href="#path-1"></use>
                    </mask>
                    <use id="Mask" fill="#001833" fill-rule="nonzero" xlink:href="#path-1"></use>
                </g>
            </g>
        </g>
    </g>
</svg>
